ncols        64
nrows        25
xllcorner    35.487916666618
yllcorner    32.973750000006
cellsize     0.000833333333
NODATA_value 0
 718 718 721 719 721 730 744 753 756 750 752 770 801 829 847 853 856 858 846 819 791 766 753 777 804 799 779 790 816 847 858 862 870 873 860 841 823 806 793 779 765 751 735 713 693 685 688 687 675 665 659 647 635 609 590 582 567 549 528 515 506 482 457 440
 714 708 710 713 718 730 740 755 769 777 772 765 785 817 838 855 872 879 866 834 806 795 805 817 820 814 796 794 813 838 864 880 889 899 894 865 826 795 773 757 747 742 735 714 691 673 665 666 656 646 644 640 634 627 619 610 591 571 556 543 528 502 479 454
 710 706 711 724 733 736 740 754 777 802 806 787 778 794 813 837 866 886 876 854 835 824 833 847 844 834 826 821 818 823 842 859 873 885 894 876 840 802 768 748 736 728 720 703 682 662 646 644 634 620 615 617 617 619 616 614 601 579 562 546 534 513 477 451
 703 710 720 738 755 766 764 768 785 806 817 809 802 797 807 818 847 875 886 879 863 854 857 864 868 868 864 854 851 848 847 851 862 875 884 883 863 821 781 746 729 719 700 685 667 648 635 624 612 599 581 577 581 594 601 609 605 585 564 547 536 513 482 449
 711 719 729 746 773 787 784 786 802 820 833 838 824 820 836 826 829 851 871 882 886 885 892 897 902 900 898 891 887 881 873 870 876 881 882 884 874 837 789 758 733 716 705 685 666 645 631 616 604 589 577 567 549 548 574 592 590 578 564 552 543 517 484 449
 719 732 746 760 771 774 771 777 796 809 816 821 832 845 865 851 836 854 878 892 898 898 896 902 905 904 902 899 894 886 885 882 881 882 882 879 876 849 811 779 745 723 708 693 678 657 637 625 614 595 583 573 554 530 534 563 576 572 563 550 539 517 485 450
 730 738 750 749 751 749 749 756 769 777 783 798 817 842 877 877 860 882 903 904 895 885 879 885 889 886 888 885 885 880 881 881 879 881 879 874 873 852 820 788 759 736 714 705 698 678 659 636 617 599 581 564 552 538 514 520 552 565 563 551 538 510 476 452
 729 717 720 719 721 725 729 734 745 765 790 816 832 854 880 894 895 907 918 922 900 879 870 870 872 871 869 869 871 871 872 873 872 873 875 872 867 847 811 777 753 734 722 715 709 697 673 644 614 593 574 555 544 538 519 499 512 543 552 546 535 511 480 449
 711 700 698 699 704 722 737 746 748 757 776 795 817 846 875 893 911 930 933 923 902 883 870 865 863 865 863 854 849 844 844 850 858 865 869 871 866 857 829 793 755 725 699 696 701 696 679 652 617 592 568 552 536 528 517 501 485 505 528 528 520 505 476 450
 696 691 690 698 711 732 748 761 767 774 782 789 800 828 864 890 912 939 941 922 900 886 873 867 875 886 886 880 866 842 829 827 829 840 855 864 865 861 844 815 777 738 695 668 664 675 676 653 621 590 567 549 533 523 511 501 489 478 497 503 502 494 471 446
 687 691 694 701 716 732 745 760 773 784 797 816 819 832 860 885 909 936 943 925 903 891 877 874 884 894 899 895 881 858 864 845 819 812 820 832 844 847 843 824 793 757 708 665 639 639 646 641 617 583 559 545 531 523 507 495 487 470 459 477 485 481 464 440
 695 699 700 701 716 727 742 755 774 798 823 839 850 860 874 889 917 937 942 931 909 898 890 881 892 898 902 901 886 881 891 875 848 812 788 786 797 809 812 807 796 765 727 691 640 616 611 615 594 564 549 538 527 521 512 496 474 468 449 451 464 464 451 428
 701 699 694 691 696 712 732 751 771 794 818 843 859 865 877 894 925 944 948 947 930 907 895 892 899 903 906 906 901 904 906 900 877 847 808 782 763 760 763 763 756 747 736 711 666 629 608 593 575 553 538 529 512 506 500 492 471 452 449 440 438 445 429 414
 692 684 679 682 693 715 748 772 798 815 832 852 863 869 873 891 922 941 946 945 927 903 893 896 902 906 912 912 913 914 910 907 895 866 831 803 780 757 730 721 717 715 711 710 699 664 638 617 595 559 530 516 487 488 480 472 461 445 442 435 421 422 411 402
 675 670 676 689 710 744 770 790 803 818 830 847 859 865 870 888 915 936 940 930 909 893 890 897 904 912 917 915 920 920 912 908 902 880 848 816 794 765 737 706 685 677 666 656 655 653 645 633 607 581 504 479 471 485 475 462 452 443 435 430 429 419 402 395
 658 672 683 694 717 745 766 778 788 804 818 827 841 853 868 883 909 929 923 903 889 891 903 910 907 911 916 917 916 917 908 905 903 893 867 834 807 779 743 713 694 671 642 615 605 604 607 598 585 560 501 467 470 476 466 458 452 442 432 424 423 425 406 393
 659 674 682 691 705 722 741 755 771 783 796 810 821 835 857 879 905 921 907 882 879 904 928 929 924 918 917 917 915 910 904 899 897 893 885 850 822 798 765 733 706 685 662 637 617 592 570 553 540 532 502 478 476 475 472 461 453 443 427 420 416 414 402 394
 660 666 676 684 693 700 719 738 744 758 782 800 815 826 843 869 895 904 885 863 878 914 934 932 926 921 916 913 908 906 905 896 886 888 886 872 853 826 796 763 731 705 683 664 646 626 600 572 551 528 517 505 491 481 472 458 450 440 430 418 411 404 400 398
 646 653 662 674 682 682 699 713 723 753 773 785 806 820 835 849 868 876 862 853 879 916 932 930 926 916 912 908 905 904 901 895 885 875 876 871 867 852 826 788 759 733 707 687 668 651 635 615 593 571 547 528 502 486 471 454 445 436 426 414 407 399 396 392
 633 641 652 661 664 668 689 716 737 745 744 769 795 811 824 835 843 845 836 840 876 912 927 925 921 916 909 902 895 896 897 894 889 874 853 842 843 849 841 814 786 754 729 711 694 680 669 652 625 594 570 541 507 483 466 450 438 429 419 408 402 395 390 388
 620 628 637 643 651 676 704 719 721 717 726 750 776 796 810 822 824 822 818 829 867 901 919 921 912 906 900 895 880 879 885 883 883 877 857 822 805 813 833 833 811 785 763 738 722 706 693 664 632 602 578 549 518 484 463 450 435 421 408 405 397 389 385 381
 637 636 629 639 653 671 692 693 694 712 730 751 777 793 801 808 810 806 803 819 853 887 905 907 902 893 889 889 876 863 866 869 870 868 854 822 781 774 796 816 807 789 775 755 737 716 695 671 643 611 581 548 517 486 462 451 431 416 405 395 389 383 378 374
 645 649 637 634 639 650 669 673 691 720 740 764 779 784 793 797 795 788 792 810 842 873 896 900 892 883 879 882 877 856 840 845 850 853 840 811 774 746 762 786 784 773 761 750 736 712 693 676 651 621 592 558 526 492 467 449 430 412 400 389 380 375 372 366
 644 652 651 645 645 650 653 661 672 693 715 742 751 762 781 788 778 772 781 806 835 870 890 888 880 870 872 876 870 855 828 817 817 813 805 775 742 714 721 732 734 731 721 721 718 708 694 680 652 627 596 563 531 501 475 448 431 414 400 387 379 373 367 361
 654 664 666 669 689 697 696 693 676 673 693 723 725 746 760 767 762 766 783 802 836 868 885 877 865 858 865 868 863 848 828 809 790 777 760 738 713 691 684 678 675 676 679 678 682 684 679 670 651 633 601 566 540 515 487 461 438 418 405 393 386 383 378 371
