ncols        128
nrows        64
xllcorner    34.884583333284
yllcorner    30.969583333340
cellsize     0.000833333333
NODATA_value 0
 448 448 453 454 454 458 464 466 467 469 469 472 478 480 484 489 490 490 496 502 509 515 522 527 528 517 500 494 499 505 510 515 521 529 537 546 550 558 563 565 569 565 553 553 562 570 570 573 573 574 579 586 596 596 587 586 589 583 574 571 568 562 557 556 557 552 547 542 543 542 535 529 525 522 522 519 515 516 515 518 527 528 521 531 534 535 534 540 541 544 546 544 547 547 547 551 553 553 557 558 557 559 559 558 554 555 556 554 557 561 563 564 569 572 570 569 568 566 563 563 561 564 567 569 570 570 567 564
 451 452 456 458 459 461 460 468 471 476 475 473 480 488 488 491 497 499 498 496 500 506 518 531 527 512 504 504 500 507 520 520 524 523 525 528 534 541 553 568 574 569 558 555 559 562 568 574 576 577 580 583 588 588 578 572 571 566 561 557 553 549 546 543 541 538 535 536 539 534 531 527 524 519 518 515 513 514 518 524 528 525 520 530 532 534 534 537 540 549 553 550 549 551 553 552 549 551 553 553 554 558 558 555 552 553 553 555 557 559 561 564 565 569 571 574 570 569 567 568 567 568 569 568 567 572 569 566
 453 457 459 462 464 464 465 474 480 480 485 481 478 490 498 501 499 503 510 509 507 508 516 528 523 510 512 518 508 507 524 533 536 539 542 530 535 547 549 555 565 568 560 561 564 562 564 567 568 572 581 588 590 590 584 579 576 571 561 560 560 560 555 545 540 535 532 532 532 530 525 522 519 517 514 510 512 517 520 521 522 521 524 527 530 530 534 537 541 545 550 548 546 547 548 549 547 550 550 552 553 556 555 554 551 549 552 557 557 558 561 562 566 568 570 570 569 566 565 567 569 572 572 569 571 573 572 565
 453 458 461 466 473 475 476 476 485 483 490 494 483 484 496 506 509 506 507 519 524 527 535 534 524 514 513 520 509 506 513 520 524 534 541 544 544 542 543 552 560 565 566 564 571 573 575 576 572 576 584 590 577 576 577 576 581 576 567 576 577 569 558 551 549 544 537 530 527 523 520 517 515 512 511 510 512 517 518 517 520 522 522 525 526 530 535 538 539 543 545 544 543 542 544 543 544 547 550 552 550 551 552 550 548 549 553 556 558 558 558 561 565 564 567 562 562 560 563 566 568 569 570 571 573 571 566 566
 456 461 470 473 476 483 486 479 489 491 486 497 495 483 486 494 503 511 517 520 529 542 548 542 528 519 518 515 516 523 514 517 521 521 526 539 553 560 559 554 555 558 565 570 573 578 584 589 584 582 583 586 576 565 564 567 575 584 580 582 575 563 564 566 561 559 546 539 533 524 517 514 517 513 509 512 513 514 518 522 520 523 527 530 531 534 537 534 537 537 541 539 539 540 542 543 543 546 550 549 550 549 550 550 546 546 550 554 555 556 558 557 560 559 561 559 560 559 561 563 563 568 571 574 574 568 567 564
 461 459 470 478 483 486 489 486 491 500 496 495 498 491 489 490 494 500 517 534 537 539 547 548 537 526 529 523 523 536 535 538 537 524 528 530 533 549 554 556 562 568 570 576 579 578 579 574 583 584 575 578 564 557 567 579 581 584 580 580 580 575 574 570 565 566 559 551 539 527 517 513 513 511 508 509 510 514 515 521 522 523 527 531 531 533 533 532 535 533 534 534 536 536 537 539 541 543 547 545 544 546 545 549 546 546 549 551 552 552 552 556 558 557 553 555 555 557 560 561 560 563 569 571 573 570 569 566
 467 470 464 469 479 487 492 492 497 503 507 497 501 502 494 503 506 499 504 516 521 527 539 545 541 536 527 521 524 532 547 556 546 528 537 545 537 538 541 551 561 573 575 576 574 565 565 568 579 569 561 562 555 555 566 574 583 582 567 563 574 570 560 558 548 548 545 541 530 523 516 513 509 508 506 508 515 515 519 522 524 524 528 531 530 530 528 528 533 533 532 532 533 534 537 539 541 543 542 541 541 542 544 547 543 543 547 550 553 555 554 556 556 554 551 551 549 555 560 558 558 559 564 567 568 571 570 567
 468 474 479 472 472 476 488 496 501 507 511 502 503 511 511 519 527 517 506 505 509 519 526 535 539 542 535 528 541 546 548 561 556 535 538 556 551 544 548 551 557 566 569 561 560 552 557 574 574 562 552 550 554 564 568 570 573 577 568 554 550 560 554 544 536 531 528 525 520 515 512 509 506 505 505 508 515 515 518 520 523 526 524 523 525 527 526 530 534 532 531 532 535 536 538 540 540 540 539 537 537 543 542 542 541 542 545 547 550 550 551 553 553 552 550 548 549 556 554 556 558 559 561 562 565 564 566 570
 478 477 478 486 487 480 478 488 499 503 509 509 506 509 517 531 539 535 517 517 518 512 521 532 541 548 546 534 534 542 548 553 556 543 540 556 560 557 564 567 565 566 569 562 549 547 562 564 557 552 545 547 556 563 560 557 560 566 557 554 543 540 546 546 538 530 522 517 514 511 508 506 505 503 504 509 515 513 516 522 524 522 523 521 524 526 528 531 528 528 530 531 532 534 535 534 536 536 536 535 536 537 539 539 541 543 547 548 547 547 546 547 549 547 545 545 548 550 550 549 553 558 559 561 566 567 571 569
 484 489 487 486 498 502 490 480 482 487 498 512 517 521 528 530 536 541 530 527 533 526 523 527 534 545 549 542 538 537 538 545 557 557 546 547 549 556 563 572 577 574 574 566 552 542 552 558 547 540 543 544 542 547 549 557 567 569 557 546 549 535 532 538 535 528 519 514 510 508 505 502 502 504 509 511 513 516 519 523 524 524 521 522 523 525 523 523 522 525 530 534 531 532 531 530 531 530 534 533 534 535 538 542 544 543 544 544 545 545 543 544 544 542 543 544 546 549 551 552 558 559 561 565 568 572 573 570
 489 495 498 490 491 506 509 499 488 488 492 514 528 534 539 544 542 545 543 539 541 539 538 524 534 547 551 545 553 553 549 543 547 552 555 559 567 570 575 575 569 556 563 564 551 540 540 548 539 536 550 543 543 550 551 552 555 553 554 539 545 540 526 522 523 519 512 508 507 504 502 498 502 508 512 514 516 519 522 524 521 520 520 519 519 521 521 521 524 528 531 530 529 529 526 527 528 530 532 536 534 535 538 541 543 538 539 540 543 542 542 541 539 541 545 550 551 554 555 557 559 562 567 570 567 571 572 572
 478 494 502 503 502 497 510 516 499 494 493 502 518 528 530 531 533 534 535 535 539 545 547 534 532 547 555 557 559 563 561 555 554 548 553 563 566 569 565 559 561 549 553 562 556 547 535 541 535 530 542 536 544 552 555 556 543 538 540 533 547 549 534 521 513 512 506 501 499 501 499 501 505 509 512 513 516 521 520 521 517 514 516 518 518 523 518 518 526 528 529 528 527 526 526 526 531 532 536 535 535 534 536 540 538 536 537 538 540 539 539 537 540 545 547 550 553 555 556 561 561 559 565 566 564 566 567 569
 490 486 500 510 516 510 506 517 511 511 506 497 501 505 512 516 520 524 531 540 545 548 551 544 532 541 553 556 560 565 566 567 566 559 555 558 565 569 560 546 551 547 542 553 545 544 533 535 532 530 533 529 541 543 551 560 546 531 528 525 538 539 529 522 511 506 503 497 495 501 502 505 508 510 511 513 516 517 513 513 513 515 517 517 518 521 522 526 527 524 526 525 528 529 526 526 528 531 533 534 534 534 536 534 533 532 533 533 537 536 537 536 539 541 541 548 549 551 554 556 559 557 558 560 561 563 568 571
 505 500 494 502 515 520 515 519 525 530 530 518 509 506 508 518 519 526 534 539 538 543 548 552 549 539 541 548 558 562 565 567 566 566 567 568 563 558 557 542 543 542 537 548 539 540 541 529 525 533 530 527 535 539 544 553 550 541 531 519 520 525 522 512 505 502 496 495 498 503 506 508 510 510 513 512 513 517 513 511 513 517 520 520 518 517 521 524 522 518 521 522 524 524 525 529 530 531 529 531 533 533 533 532 529 532 529 536 536 534 537 543 539 541 545 547 545 550 550 552 552 555 559 562 565 568 576 577
 491 508 513 506 504 516 525 522 526 532 534 536 532 523 515 515 522 528 530 531 542 549 548 553 559 557 552 551 554 559 564 565 558 558 563 565 551 544 552 541 536 535 530 537 535 532 538 533 522 529 523 530 541 536 533 536 538 544 534 522 512 511 508 504 500 497 495 498 500 506 509 509 508 509 510 509 511 514 511 509 513 515 516 515 514 517 519 520 520 519 521 521 519 521 527 527 526 528 529 529 528 528 528 528 529 536 534 541 539 539 545 547 542 548 549 551 553 549 551 554 557 561 558 562 564 566 567 572
 493 510 517 521 515 512 525 529 530 535 538 540 544 542 532 525 525 534 540 542 543 552 555 554 558 559 561 563 563 562 561 564 558 544 547 550 545 536 535 535 531 529 525 528 529 525 531 528 517 520 523 537 540 530 524 520 521 530 528 522 513 508 503 500 496 494 495 497 501 505 505 506 505 508 507 508 511 510 507 508 510 512 512 513 515 515 517 517 518 518 524 522 519 520 521 521 522 523 523 526 527 525 527 527 531 537 541 544 539 541 540 546 542 549 552 553 555 553 551 553 558 559 556 556 558 559 561 563
 514 515 518 524 525 519 524 532 537 541 540 536 538 546 543 540 535 535 546 553 555 556 548 544 546 554 558 564 564 559 548 549 548 540 536 542 534 536 531 524 528 526 520 520 520 520 523 523 517 511 520 530 535 533 525 514 511 515 514 511 508 506 503 497 492 491 496 497 496 499 501 501 503 505 506 507 508 507 507 506 507 506 510 512 511 512 515 518 517 516 517 520 519 520 520 520 517 517 523 524 527 528 529 534 534 535 542 543 546 547 553 541 541 554 548 546 548 551 549 551 552 550 550 552 554 557 557 558
 501 513 516 522 530 534 532 534 538 540 536 529 530 534 538 539 541 541 542 550 558 557 553 545 541 546 550 559 558 546 541 533 541 538 527 537 533 527 532 526 518 520 517 514 513 513 516 520 518 509 515 519 521 527 531 523 512 507 503 503 501 501 499 495 492 490 493 496 496 496 498 497 501 502 501 504 505 503 501 505 508 508 510 508 507 509 512 515 514 513 512 515 520 521 525 529 525 526 525 529 531 529 527 532 531 534 537 542 543 544 547 540 544 547 542 540 544 547 544 546 549 549 550 555 560 562 565 568
 477 488 494 508 526 535 540 538 539 542 542 533 523 526 532 534 540 548 548 551 556 555 554 553 540 540 537 548 549 533 536 527 531 530 522 531 527 523 522 522 514 512 511 508 506 508 514 518 515 505 510 511 512 515 519 520 515 508 498 497 498 495 492 490 491 491 492 493 492 496 496 497 498 500 499 501 501 501 504 508 510 509 513 510 510 513 512 509 514 516 519 518 521 523 524 527 526 531 533 535 531 526 528 533 533 535 533 536 538 542 546 540 539 539 543 542 542 547 546 548 552 552 553 556 560 562 567 572
 482 481 481 488 513 529 534 532 534 540 540 532 522 521 534 542 546 544 547 553 548 550 549 555 546 536 529 541 541 526 526 522 526 525 519 529 523 518 514 512 509 505 506 504 501 504 509 512 510 506 504 507 506 506 507 508 507 502 497 494 493 489 487 489 491 492 492 492 493 497 493 497 498 499 499 501 506 505 507 512 513 515 517 513 514 510 514 513 521 518 519 521 522 529 527 530 534 531 530 527 529 528 528 526 530 531 530 533 534 535 536 537 539 534 536 538 544 547 549 548 551 554 555 558 561 565 568 571
 503 491 485 492 510 517 517 516 522 529 527 521 517 523 533 538 541 539 548 551 545 541 546 553 553 543 527 538 543 534 524 515 520 523 514 517 518 511 508 504 501 503 502 502 498 500 503 505 501 498 499 501 499 500 500 501 499 493 489 488 488 487 488 492 493 491 494 495 498 499 501 503 502 504 506 508 505 505 512 513 514 519 522 521 519 519 516 517 520 524 524 522 527 526 528 530 529 527 526 523 521 526 522 524 527 526 532 534 534 535 537 537 540 537 538 539 540 543 545 546 549 554 555 559 563 564 568 569
 508 488 491 502 504 505 511 516 518 514 519 519 515 528 533 529 532 542 545 544 540 536 544 548 547 541 526 528 535 531 525 518 510 517 513 507 506 503 502 498 497 496 497 496 495 497 497 501 497 494 496 498 496 494 495 494 493 487 484 484 484 486 489 493 495 496 499 496 497 501 504 501 502 502 506 509 511 512 514 517 518 519 521 522 522 524 521 519 524 523 526 522 525 529 528 523 524 522 518 521 523 522 517 525 526 527 531 532 533 529 534 536 541 546 543 547 546 545 549 552 552 554 554 558 562 566 568 571
 511 490 491 498 497 498 504 504 503 503 509 513 512 520 527 523 530 533 536 538 535 533 539 541 540 535 524 517 524 521 517 512 505 506 503 501 499 497 496 494 494 492 492 490 493 492 493 498 494 493 494 493 491 492 491 485 483 481 481 486 486 488 492 492 494 494 494 495 495 497 499 500 501 500 505 507 508 511 513 517 518 518 520 521 520 521 527 523 524 523 523 520 517 521 524 520 518 518 517 521 520 517 526 529 527 525 525 530 536 534 537 540 542 546 547 551 552 553 562 559 559 559 560 563 560 565 567 569
 508 507 497 494 494 498 503 503 504 511 507 507 510 512 517 518 522 524 529 534 531 528 529 530 535 531 525 519 512 510 505 502 497 499 497 495 497 493 492 493 491 488 489 492 492 488 490 490 488 493 494 491 487 487 485 481 481 483 485 484 486 489 488 490 493 493 493 497 495 499 502 501 499 504 505 504 505 509 510 513 515 517 516 515 519 522 521 521 520 520 519 516 516 516 519 519 516 518 519 521 525 522 527 529 530 531 532 536 541 544 543 543 541 542 543 547 552 550 553 556 562 566 565 566 565 568 571 576
 505 523 513 507 504 499 504 511 509 514 517 517 517 512 513 515 518 519 524 530 528 522 521 525 528 528 524 521 513 508 505 502 496 496 497 493 493 491 490 486 486 486 486 490 487 486 487 485 486 490 489 486 481 478 479 480 476 483 490 490 487 488 489 491 495 493 496 495 497 501 503 503 499 507 506 505 506 507 508 510 514 514 512 516 523 521 518 515 516 517 515 514 513 517 519 521 521 522 520 522 524 526 524 528 532 533 536 539 540 540 542 542 543 543 546 546 549 552 553 558 562 565 563 565 565 568 572 575
 496 519 519 515 510 504 502 508 512 513 516 519 518 517 519 519 520 521 523 524 525 524 518 519 524 525 520 516 510 505 505 501 497 492 494 489 488 487 486 483 481 482 485 483 482 484 486 484 483 486 485 485 478 476 476 481 483 483 484 487 485 488 489 492 494 492 495 497 498 504 503 507 505 506 507 502 503 506 508 511 509 511 507 506 515 516 515 512 514 515 516 516 519 518 519 519 521 520 520 521 526 528 528 529 531 532 534 538 538 535 540 543 545 544 544 544 545 551 553 555 556 560 560 563 563 566 569 571
 489 514 511 509 511 508 507 507 516 522 522 522 521 521 525 523 523 524 523 525 528 529 523 513 516 517 518 518 512 505 500 498 494 487 485 486 486 483 482 482 480 481 483 477 480 483 484 482 481 482 482 482 477 481 480 478 483 483 482 482 484 487 491 492 493 493 498 499 500 504 506 506 506 508 508 507 506 508 510 512 514 511 508 505 509 505 510 508 512 516 518 518 519 519 519 519 522 524 526 525 526 528 528 530 534 535 535 537 539 539 539 541 542 543 545 546 548 548 551 556 558 560 560 563 562 564 567 568
 482 496 497 503 512 514 512 509 512 521 526 527 527 527 526 527 528 528 528 530 531 530 526 516 510 506 510 514 509 502 497 492 489 486 485 486 484 481 479 479 477 479 478 475 478 480 480 481 480 477 474 473 477 485 484 477 479 480 482 483 486 487 491 493 494 497 500 501 502 502 509 508 506 509 511 514 510 511 509 508 512 513 511 513 512 507 510 512 512 514 516 518 522 522 522 521 523 523 525 526 528 529 529 531 534 536 535 536 541 541 541 543 543 544 546 547 547 548 553 562 561 559 560 563 563 565 565 572
 458 465 484 505 511 517 519 514 512 519 522 522 525 522 518 525 526 526 527 528 524 526 528 527 523 513 500 499 502 499 493 489 486 483 483 483 482 479 478 476 475 477 475 472 475 477 479 478 476 476 474 471 472 478 477 478 481 484 484 483 485 489 491 492 495 498 502 507 506 506 509 507 510 513 513 516 517 511 518 514 516 516 519 519 513 511 511 512 514 516 517 518 520 520 522 522 524 526 527 528 531 533 530 532 533 535 536 540 546 545 543 546 549 555 559 554 553 552 554 559 560 559 557 563 565 566 567 573
 435 455 484 499 505 512 516 520 514 512 515 513 516 515 510 517 518 518 517 517 511 517 520 521 520 516 508 495 494 495 493 487 483 480 480 480 479 475 472 472 471 474 475 474 472 475 478 475 470 474 476 476 474 478 482 483 482 485 485 486 487 491 492 495 496 500 503 509 510 511 511 511 511 512 514 514 513 515 520 516 513 513 510 512 507 509 511 512 515 518 517 519 519 522 524 526 528 529 530 533 534 534 532 533 536 535 537 542 544 544 543 547 553 557 565 571 559 554 559 556 556 560 568 567 569 570 569 572
 437 437 452 470 492 505 515 517 514 510 505 501 507 508 503 507 510 514 510 505 504 511 513 510 506 508 510 503 492 490 488 483 482 477 476 477 476 474 472 472 469 469 468 471 471 473 472 468 470 475 476 480 483 484 484 485 486 488 492 491 491 491 493 496 500 503 506 510 511 511 509 509 510 509 509 504 506 513 512 513 511 509 507 506 507 510 511 509 513 515 519 522 521 522 525 528 530 531 532 533 534 534 535 536 535 536 538 545 546 549 547 547 550 556 566 581 570 561 565 563 560 566 579 572 575 584 581 575
 447 437 443 482 506 510 510 506 503 505 504 497 497 501 499 508 517 521 515 501 497 507 514 510 501 498 500 500 495 487 483 479 478 474 472 471 472 471 470 469 468 469 469 467 466 465 470 469 472 479 480 482 487 485 490 491 491 490 492 491 494 492 492 497 500 501 505 507 506 505 505 504 508 509 508 510 507 511 510 509 508 509 510 507 507 508 509 511 512 516 521 523 524 525 528 529 530 532 534 535 536 537 538 537 536 541 543 549 557 557 549 549 551 557 567 584 584 570 577 578 571 566 578 579 575 588 594 586
 449 441 440 474 504 506 506 501 494 495 494 491 496 499 510 519 520 522 518 497 494 508 516 517 510 496 489 492 490 488 487 483 476 472 471 470 469 468 468 467 466 466 466 468 468 465 469 474 475 474 476 481 485 485 489 490 488 490 488 490 492 492 497 501 501 504 508 505 504 503 503 507 506 506 508 512 509 509 506 505 503 503 506 506 509 508 509 512 515 518 522 523 522 525 527 532 534 534 535 537 538 539 540 538 541 546 551 555 560 554 550 552 554 556 561 571 579 583 590 593 583 572 574 585 581 586 604 606
 464 451 438 456 488 504 511 500 490 482 487 498 510 516 516 517 514 511 498 486 497 505 509 514 509 495 487 489 487 485 487 480 473 470 469 467 464 465 467 466 467 469 474 475 469 468 472 474 474 473 472 473 475 478 481 483 484 487 489 491 492 492 496 501 501 504 507 506 503 503 502 503 504 503 505 505 506 505 505 503 506 505 503 505 507 510 511 514 514 518 521 522 526 530 533 533 535 536 536 537 540 541 543 540 543 551 560 566 559 553 552 552 554 556 559 562 570 586 599 608 597 578 575 592 594 590 603 614
 474 453 437 451 487 504 500 499 489 477 492 514 516 514 509 505 503 499 487 485 500 492 501 511 500 488 481 481 486 485 482 473 470 470 466 464 462 463 466 467 472 479 488 486 477 471 473 474 476 475 474 476 478 477 482 483 480 482 487 488 490 496 498 500 504 504 503 501 500 500 501 501 503 500 501 501 500 501 502 504 503 507 508 509 510 510 513 517 518 516 517 520 524 529 534 535 536 540 539 540 542 543 544 545 547 558 566 564 556 555 557 560 559 558 559 567 568 577 596 613 609 586 578 592 606 599 603 619
 476 457 437 450 481 498 486 491 485 473 482 505 507 500 495 492 491 484 478 484 489 491 501 501 490 479 476 481 487 480 473 466 463 464 462 462 464 467 469 473 478 484 489 484 479 473 477 479 478 483 482 482 483 488 490 490 490 488 485 487 490 495 498 500 504 502 500 496 494 497 498 499 501 502 499 503 505 504 505 504 504 506 508 509 513 512 514 516 520 520 520 523 523 529 535 539 539 544 544 541 543 546 546 548 552 562 566 559 557 557 563 571 571 566 566 570 574 578 594 612 617 598 581 580 593 602 605 614
 496 477 444 449 474 496 484 481 480 468 484 499 493 485 479 474 474 471 470 474 478 485 490 493 485 474 476 481 477 467 462 459 459 460 460 462 465 467 467 471 475 481 481 479 482 482 487 483 486 488 491 491 489 490 492 492 493 490 487 485 490 495 494 494 493 494 492 491 493 494 494 498 499 501 502 505 507 507 508 510 511 510 512 516 519 517 517 517 519 519 521 529 532 536 540 542 546 548 545 543 545 548 551 553 555 557 558 556 558 565 579 590 586 577 577 574 581 583 585 601 618 611 591 583 582 588 597 600
 509 488 446 443 463 486 478 467 472 462 477 490 480 470 462 461 461 464 466 465 469 474 477 482 482 475 469 468 463 459 458 459 459 461 463 465 467 468 468 469 468 475 477 480 483 485 492 496 494 493 494 495 492 492 493 493 493 492 490 488 488 490 494 491 492 492 492 489 492 491 495 501 503 505 506 502 505 507 511 514 516 518 520 521 522 519 520 522 523 524 523 525 528 530 536 540 545 546 541 543 546 549 557 566 568 563 564 561 559 566 587 602 596 597 598 583 583 591 591 592 607 612 595 588 592 589 590 598
 507 478 448 439 452 462 460 455 459 457 471 474 463 456 455 458 461 464 464 463 463 466 468 470 471 469 464 460 458 459 461 462 461 462 464 467 470 470 469 469 470 472 475 480 482 488 497 500 497 494 497 496 497 493 492 493 493 493 490 490 490 488 489 490 491 492 493 493 496 496 496 499 503 502 503 505 505 508 511 512 514 516 519 521 521 521 522 522 524 527 526 525 523 526 531 539 543 543 543 542 544 546 549 560 570 579 584 572 565 569 585 603 607 615 609 596 599 599 599 600 607 609 606 594 598 594 597 600
 478 458 462 460 450 448 449 448 451 453 460 458 452 450 451 452 456 456 459 459 460 461 461 458 459 458 456 457 459 459 462 461 461 464 466 468 472 471 470 473 472 474 477 480 483 495 497 501 500 498 498 497 497 494 493 494 495 493 491 492 491 491 493 493 494 493 493 494 497 498 500 502 502 502 501 505 504 505 507 509 510 512 514 517 517 520 523 522 524 526 527 527 528 532 533 535 539 548 551 549 549 549 548 553 564 579 585 573 567 571 585 606 617 624 620 619 619 609 609 611 626 625 615 606 603 604 610 607
 467 477 481 478 484 476 474 469 456 452 455 451 450 448 449 449 448 448 451 453 456 457 456 454 455 455 457 461 463 460 461 463 463 464 465 468 470 474 472 474 476 475 478 480 486 490 494 499 501 501 500 498 497 495 496 497 496 493 493 492 494 495 494 495 497 495 493 498 498 500 503 505 504 506 508 509 507 507 506 509 510 511 513 514 516 517 519 520 521 523 525 529 533 534 538 541 543 549 560 557 554 553 551 553 560 572 578 575 569 571 581 595 603 613 623 630 634 625 623 616 630 638 627 618 613 609 618 623
 484 489 491 504 499 490 480 470 460 451 453 451 451 449 450 449 449 448 451 451 452 453 452 456 456 458 460 464 464 461 461 464 464 466 467 468 468 472 478 471 478 482 481 481 485 487 492 499 500 500 499 498 497 495 498 499 499 498 497 495 498 496 495 496 498 499 497 499 497 500 507 508 506 508 511 509 508 511 513 515 516 516 514 513 515 517 520 523 525 526 525 526 531 532 534 538 544 549 563 572 566 559 555 554 559 570 581 587 577 576 576 577 579 588 602 614 624 632 637 637 636 645 642 631 626 621 620 629
 501 511 524 512 494 480 472 467 457 451 452 451 449 450 450 451 450 451 452 450 451 453 452 451 454 457 458 461 461 461 459 461 462 467 468 469 471 470 474 479 477 481 485 489 495 501 502 497 496 496 499 496 497 499 500 500 497 497 500 503 503 500 498 500 500 501 501 501 501 503 509 509 508 509 510 512 510 512 516 515 515 515 514 516 517 518 519 524 529 530 530 530 528 532 535 541 547 552 564 575 568 557 555 560 569 581 591 602 596 586 585 586 585 584 586 593 601 612 626 636 643 647 650 645 635 628 630 633
 520 541 537 515 497 493 488 478 458 451 453 454 452 453 451 454 452 451 450 450 448 451 453 454 458 461 463 463 462 461 459 459 461 467 470 471 474 472 474 482 479 485 495 502 501 499 500 495 492 493 493 494 497 497 497 494 494 497 500 502 505 505 502 503 503 502 502 504 504 505 511 512 512 512 515 516 516 514 516 516 516 517 517 518 520 521 521 524 528 533 534 536 532 531 534 539 544 548 555 557 553 550 555 558 566 581 596 608 605 598 599 604 607 600 592 588 592 595 602 611 620 625 631 638 638 636 641 642
 536 543 522 507 513 512 491 476 457 452 455 459 462 457 453 457 456 456 456 453 452 454 457 461 462 460 463 460 460 460 460 459 459 463 465 469 474 475 478 476 480 489 494 494 499 494 496 493 488 490 493 494 494 493 493 494 496 498 499 499 502 505 507 507 505 507 507 506 505 506 511 513 516 517 516 517 519 517 517 518 516 516 521 523 521 523 524 528 529 533 537 539 538 534 534 535 537 538 544 548 552 554 569 573 564 568 578 583 584 585 592 599 612 619 613 604 599 597 597 600 605 610 617 627 630 634 644 650
 541 531 519 525 526 512 488 470 456 455 461 463 466 463 457 457 458 457 458 458 457 459 462 466 466 463 463 463 460 461 461 461 457 463 465 464 468 471 474 474 476 479 481 486 492 487 487 486 486 489 491 490 491 490 492 495 496 497 500 500 504 505 506 507 506 506 507 508 510 510 511 512 513 512 517 519 519 518 517 518 520 519 523 527 524 525 529 534 537 536 539 544 543 537 538 538 536 544 551 557 554 557 571 584 584 576 573 578 582 586 596 598 601 606 616 618 608 606 604 605 609 611 612 612 616 626 640 650
 554 543 531 519 511 502 489 474 459 460 467 466 467 464 462 459 458 460 460 462 462 462 462 464 463 465 465 464 459 457 461 462 460 464 466 462 465 464 469 471 474 475 476 479 482 482 480 480 483 484 487 490 489 495 495 497 499 500 500 501 504 506 507 510 512 511 511 511 513 513 515 513 514 515 518 518 519 521 521 521 524 526 525 527 528 528 534 542 547 543 543 551 553 543 539 543 539 545 556 567 563 559 561 574 586 594 594 586 590 594 598 613 617 609 611 622 618 615 615 618 617 627 627 623 622 620 629 639
 561 555 536 520 516 510 491 473 459 458 469 470 470 469 469 462 460 463 461 460 463 460 460 464 466 469 471 466 463 465 466 466 465 465 467 468 474 465 463 470 474 475 473 475 475 482 486 484 487 489 491 489 488 492 496 498 500 502 502 502 504 506 507 508 511 513 516 516 516 515 516 516 518 518 521 518 521 520 522 524 523 527 527 527 532 532 533 538 546 550 548 557 561 550 543 544 547 545 553 570 578 573 561 562 580 601 615 610 601 608 603 611 630 633 625 633 628 621 621 629 625 634 638 639 638 634 627 629
 552 544 529 515 503 499 488 473 460 454 463 469 472 478 476 468 466 466 464 464 465 465 462 462 465 472 472 466 468 468 467 465 467 470 468 471 475 471 468 469 479 471 477 480 484 489 495 493 491 494 495 496 494 495 494 495 497 501 502 502 504 505 508 509 512 515 522 519 518 518 523 522 524 524 526 524 526 526 528 525 529 532 533 528 534 539 539 540 544 554 556 563 569 556 547 544 547 549 550 563 576 588 577 563 573 592 613 625 619 617 624 617 618 629 644 650 644 632 631 639 638 639 643 648 645 645 641 646
 544 528 520 518 508 500 487 475 465 455 457 461 469 480 484 477 473 469 466 467 466 466 466 469 472 472 472 468 469 469 470 465 464 468 469 472 473 472 476 477 477 473 477 484 488 494 496 498 494 497 494 497 497 496 497 498 497 498 500 502 503 505 508 508 509 515 516 516 519 521 523 522 524 525 528 532 534 534 534 534 537 540 540 534 531 536 540 544 552 560 568 571 572 561 551 548 550 556 553 559 574 594 594 571 568 576 592 603 604 606 624 633 631 632 634 636 634 636 638 639 644 652 656 658 656 654 651 657
 541 529 527 520 509 506 496 479 464 456 461 468 469 481 490 489 483 475 470 471 467 467 470 472 471 472 475 472 470 468 471 470 468 468 468 469 472 479 475 480 484 488 483 485 487 493 495 496 499 500 497 499 501 499 497 499 498 498 500 502 504 506 509 507 509 513 511 511 516 519 520 523 527 530 534 535 535 534 536 538 537 541 543 536 538 542 544 543 548 563 568 565 562 559 554 553 556 567 561 558 565 577 588 591 575 567 574 583 586 595 606 610 614 613 614 615 619 621 624 628 635 642 650 656 661 662 662 662
 539 526 512 501 496 492 487 479 465 458 463 473 478 480 484 489 485 478 477 474 470 472 474 476 474 474 476 478 475 475 471 471 467 468 472 470 475 475 473 485 489 494 490 490 491 489 491 495 499 499 499 499 499 500 502 502 501 503 501 501 504 505 507 508 509 509 510 510 515 519 523 528 530 531 533 534 535 537 541 542 544 545 544 543 544 550 549 553 545 549 555 553 555 556 556 558 563 575 575 567 565 568 574 588 593 583 573 573 576 579 584 591 593 592 595 598 604 604 606 611 618 627 631 637 647 657 662 660
 540 530 522 518 511 501 485 476 465 457 461 468 477 481 480 482 485 484 482 477 470 468 472 475 473 477 479 480 475 480 479 469 466 469 474 476 479 474 478 485 487 490 495 498 498 500 502 500 497 499 500 502 501 504 502 503 502 507 505 505 508 509 509 512 513 514 515 514 517 519 523 527 527 529 531 533 535 536 540 547 552 552 548 552 547 553 553 564 556 548 552 554 554 557 561 561 566 569 581 581 582 590 583 577 584 601 596 581 576 577 578 580 581 583 584 585 589 594 598 606 613 619 630 638 642 642 649 649
 552 537 523 518 506 497 487 479 466 460 459 458 462 463 467 470 473 478 478 473 468 466 471 475 475 477 480 477 476 481 482 470 468 469 473 474 478 473 482 485 492 494 495 501 504 505 504 503 505 501 503 505 508 510 507 502 500 503 506 509 510 512 515 515 515 516 518 520 521 521 523 525 527 535 536 536 538 540 540 544 551 557 557 562 558 558 561 570 561 551 549 554 557 558 564 572 578 578 579 592 601 609 605 593 581 596 610 598 580 578 580 584 585 587 587 589 591 592 597 601 606 614 620 625 627 629 634 640
 549 537 521 504 497 489 481 467 467 466 462 459 457 461 464 466 467 468 472 474 471 477 477 480 482 481 477 478 479 476 478 475 471 473 477 476 475 476 484 483 487 494 500 504 504 504 500 496 496 502 505 509 511 513 510 508 504 503 506 508 510 511 513 514 516 517 519 522 524 526 526 531 533 540 541 539 541 542 541 543 547 552 563 572 566 565 571 574 567 556 552 552 554 554 560 575 590 597 594 595 613 625 625 613 592 590 609 608 587 580 579 584 588 593 595 599 599 595 596 604 608 614 617 620 625 637 636 645
 526 521 516 503 488 480 475 476 480 468 464 462 459 460 459 460 464 470 473 475 472 478 479 480 484 486 485 479 481 478 475 476 480 480 481 481 479 478 479 481 482 485 488 490 492 493 489 489 495 502 504 506 510 509 508 505 502 503 506 507 509 507 507 512 515 517 519 523 527 530 527 532 537 538 538 538 539 544 543 548 556 559 564 577 581 574 587 584 573 561 559 557 559 558 558 572 586 593 600 606 619 632 637 627 603 590 598 607 593 583 583 588 596 599 605 611 609 609 607 604 610 623 630 633 630 641 647 639
 530 532 526 517 503 481 479 489 492 477 467 463 460 459 463 461 467 473 477 476 479 480 481 487 488 487 483 482 480 480 479 478 481 482 484 483 481 483 483 484 485 484 483 483 486 486 486 489 494 497 499 502 505 504 501 498 500 502 505 506 509 513 513 513 513 515 521 526 529 528 525 527 529 532 534 536 541 546 550 553 564 570 570 576 585 586 591 593 585 580 570 570 572 565 561 563 570 574 583 595 608 623 636 637 617 597 597 602 600 591 587 588 592 600 607 615 618 622 620 616 612 618 630 641 643 647 644 612
 538 537 530 514 497 481 490 496 497 481 469 464 461 459 461 464 467 473 476 477 479 480 484 485 486 485 487 485 480 480 480 478 483 485 487 487 487 486 487 487 485 488 485 485 486 488 487 488 491 491 497 498 499 499 499 498 504 510 511 513 515 517 518 517 517 517 518 524 525 526 533 536 534 537 541 536 540 550 559 563 565 564 566 567 571 574 580 586 592 592 590 594 589 573 566 565 566 568 573 582 598 617 635 644 629 605 608 608 601 595 595 597 596 598 602 614 624 630 633 629 626 621 621 627 634 629 608 586
 528 519 516 506 489 482 498 505 498 485 474 469 462 460 464 465 467 473 477 477 480 483 484 485 486 487 488 488 483 484 480 481 486 489 489 491 492 496 501 496 492 491 488 487 488 490 491 492 489 491 494 495 494 497 501 504 507 510 511 513 518 521 521 523 521 518 519 527 531 531 538 545 542 540 545 538 544 550 557 556 553 552 554 558 560 561 567 577 583 591 599 605 601 582 571 574 578 582 574 579 593 612 630 646 645 627 620 617 607 603 608 609 611 607 608 610 618 626 633 639 639 637 630 623 600 584 557 546
 523 517 517 521 497 485 495 505 495 485 476 471 464 462 465 465 464 472 477 476 476 481 484 486 492 496 493 491 488 484 485 483 485 487 489 494 496 502 510 506 499 498 492 489 490 490 494 494 492 495 495 497 498 502 505 509 507 507 510 513 515 518 522 525 524 521 520 525 529 529 536 546 547 545 547 540 540 545 547 548 549 553 561 565 563 562 564 570 578 591 601 614 612 598 586 597 600 602 582 577 593 619 632 636 637 636 628 617 611 610 617 621 622 619 615 616 619 624 628 638 641 633 617 588 558 522 501 491
 550 547 545 528 502 485 497 509 499 490 480 470 465 462 464 464 465 474 479 480 478 480 485 491 499 505 496 491 488 485 486 483 485 487 490 493 498 505 514 513 507 506 496 493 492 494 498 498 494 498 500 503 505 508 510 513 515 517 515 516 517 517 520 525 529 525 526 532 533 530 538 549 553 550 549 543 543 542 544 551 553 559 568 573 576 571 566 567 572 587 600 612 616 616 611 618 625 616 593 578 588 606 609 611 610 610 610 604 607 616 622 634 636 630 624 629 628 632 636 630 607 587 580 554 516 484 468 461
 566 563 554 531 503 491 509 517 507 493 481 473 468 463 465 465 469 469 475 477 478 479 483 488 491 494 492 490 490 492 491 489 487 486 488 491 496 504 515 518 510 506 505 498 496 494 499 503 498 499 507 510 510 513 513 510 514 520 521 521 523 524 522 528 532 528 528 535 536 533 544 557 557 556 555 546 551 551 546 548 549 553 559 564 571 575 572 574 574 577 583 595 601 609 616 626 634 623 599 583 579 584 586 592 590 583 580 588 602 615 623 632 643 644 642 639 632 626 622 603 569 541 542 534 498 468 452 446
 543 547 545 531 505 495 513 520 507 491 479 475 467 466 467 472 474 472 475 477 480 477 479 482 486 486 486 491 497 499 496 492 487 487 491 493 493 500 512 517 512 514 511 502 499 497 499 504 504 503 504 511 515 515 517 513 512 519 526 527 527 527 525 528 534 531 531 539 540 535 543 557 563 565 559 551 553 558 555 554 556 557 558 556 559 564 571 582 586 590 587 588 584 593 609 622 631 624 606 594 587 582 590 601 605 587 555 562 584 591 604 615 616 616 619 610 600 582 575 563 534 507 496 489 477 459 445 439
 530 531 537 531 511 499 507 515 503 487 480 474 470 468 470 476 479 477 474 474 476 476 480 483 482 481 486 493 502 504 500 493 488 486 492 497 495 500 509 516 517 519 510 511 508 503 505 507 510 511 507 505 510 514 517 516 517 517 522 526 530 530 531 533 535 535 536 543 544 536 541 549 559 569 560 555 555 558 565 561 562 564 563 563 563 559 568 581 594 606 611 614 601 591 601 615 630 634 627 609 597 590 593 606 611 584 537 532 548 554 573 583 575 567 565 560 557 534 517 505 481 473 477 464 453 449 437 431
